contributed-vectors/paotang.svg

<svg width="192" height="192" viewBox="0 0 192 192" fill="none" xmlns="http://www.w3.org/2000/svg">
<g clip-path="url(#clip0)">
<g clip-path="url(#clip1)">
<path d="M172.5 29.1V54.1H117.8C110.8 54.1 105.1 54 101.6 55C81 60.5 77 77.8 57.4 80.7H44.8H19.5V29.1C19.5 23.8 23.8 19.5 29.1 19.5H163C168.2 19.5 172.5 23.8 172.5 29.1Z" fill="#9ABEFF"/>
<path d="M149.71 36.2496L29.0664 70.8374L37.9958 101.983L158.639 67.3957L149.71 36.2496Z" fill="#F9DE81"/>
<path d="M97.3383 33.5812L29.978 45.4554L41.8523 112.816L109.213 100.942L97.3383 33.5812Z" fill="white"/>
<path d="M60.7999 67L56.7999 44.6L53.0999 45.3L34.3999 48.6L35.0999 52.3L37.6999 67.3L38.3999 71L57.0999 67.7L60.7999 67ZM41.3999 66.6L38.7999 51.6L53.7999 49L56.3999 64L41.3999 66.6Z" fill="#B1B5BD"/>
<path d="M50.6793 53.3933L43.1948 54.7127L44.5142 62.1972L51.9987 60.8778L50.6793 53.3933Z" fill="#B1B5BD"/>
<path d="M90.4998 38.7L71.7998 42L72.4998 45.7L75.0998 60.7L75.7998 64.4L94.4998 61.1L98.1998 60.4L94.1998 38L90.4998 38.7ZM93.7998 57.4L78.7998 60L76.1998 45L91.1998 42.4L93.7998 57.4Z" fill="#B1B5BD"/>
<path d="M88.0787 46.7961L80.5942 48.1155L81.9136 55.6L89.3981 54.2806L88.0787 46.7961Z" fill="#B1B5BD"/>
<path d="M70 53.8L68.7 46.4L64.9 47L64.3 43.3L60.5 43.9L63.2 58.9L66.9 58.2L66.3 54.5L70 53.8Z" fill="#B1B5BD"/>
<path d="M70.7159 57.6221L66.9736 58.2818L68.293 65.7662L72.0352 65.1066L70.7159 57.6221Z" fill="#B1B5BD"/>
<path d="M46.5 73.4L39 74.7L39.6 78.5L40.3 82.2L51.5 80.2L50.9 76.5L47.1 77.2L46.5 73.4Z" fill="#B1B5BD"/>
<path d="M57.7132 71.4657L50.2288 72.7851L50.8884 76.5273L58.3729 75.208L57.7132 71.4657Z" fill="#B1B5BD"/>
<path d="M68.2339 65.7025L64.4917 66.3622L65.1514 70.1045L68.8936 69.4448L68.2339 65.7025Z" fill="#B1B5BD"/>
<path d="M62.0998 74.5L58.2998 75.2L58.9998 78.9L66.4998 77.6L65.7998 73.9L65.1998 70.1L61.3998 70.8L62.0998 74.5Z" fill="#B1B5BD"/>
<path d="M98.8361 64.1927L68.8982 69.4702L69.5579 73.2124L99.4958 67.935L98.8361 64.1927Z" fill="#B1B5BD"/>
<path d="M172.5 54.1V162.9C172.5 168.2 168.2 172.5 162.9 172.5H29.1C23.8 172.5 19.5 168.2 19.5 162.9V80.7H44.8H57.4C77 77.8 81 60.5 101.6 55C105.1 54.1 110.8 54.1 117.8 54.1H172.5Z" fill="#B3CEFF"/>
</g>
</g>
<defs>
<clipPath id="clip0">
<rect width="192" height="192" fill="white"/>
</clipPath>
<clipPath id="clip1">
<rect width="153" height="153" fill="white" transform="translate(19.5 19.5)"/>
</clipPath>
</defs>
</svg>

<svg xmlns="http://www.w3.org/2000/svg" width="192" height="192" fill="none"><g clip-path="url(#a)"><g clip-path="url(#b)"><path fill="#9ABEFF" d="M172.5 29.1v25h-54.7c-7 0-12.7-.1-16.2.9C81 60.5 77 77.8 57.4 80.7H19.5V29.1c0-5.3 4.3-9.6 9.6-9.6H163c5.2 0 9.5 4.3 9.5 9.6Z"/><path fill="#F9DE81" d="M149.71 36.25 29.066 70.837l8.93 31.146 120.643-34.587-8.929-31.146Z"/><path fill="#fff" d="m97.338 33.581-67.36 11.874 11.874 67.361 67.361-11.874-11.875-67.36Z"/><path fill="#B1B5BD" d="m60.8 67-4-22.4-3.7.7-18.7 3.3.7 3.7 2.6 15 .7 3.7 18.7-3.3 3.7-.7Zm-19.4-.4-2.6-15 15-2.6 2.6 15-15 2.6Z"/><path fill="#B1B5BD" d="m50.68 53.393-7.485 1.32 1.32 7.484 7.484-1.32-1.32-7.484ZM90.5 38.7 71.8 42l.7 3.7 2.6 15 .7 3.7 18.7-3.3 3.7-.7-4-22.4-3.7.7Zm3.3 18.7-15 2.6-2.6-15 15-2.6 2.6 15Z"/><path fill="#B1B5BD" d="m88.079 46.796-7.485 1.32 1.32 7.484 7.484-1.32-1.32-7.484ZM70 53.8l-1.3-7.4-3.8.6-.6-3.7-3.8.6 2.7 15 3.7-.7-.6-3.7 3.7-.7ZM70.716 57.622l-3.742.66 1.319 7.484 3.742-.66-1.32-7.484ZM46.5 73.4 39 74.7l.6 3.8.7 3.7 11.2-2-.6-3.7-3.8.7-.6-3.8Z"/><path fill="#B1B5BD" d="m57.713 71.466-7.484 1.32.66 3.741 7.484-1.319-.66-3.742ZM68.234 65.703l-3.742.66.66 3.742 3.742-.66-.66-3.742Z"/><path fill="#B1B5BD" d="m62.1 74.5-3.8.7.7 3.7 7.5-1.3-.7-3.7-.6-3.8-3.8.7.7 3.7ZM98.836 64.193 68.898 69.47l.66 3.742 29.938-5.277-.66-3.742Z"/><path fill="#B3CEFF" d="M172.5 54.1v108.8c0 5.3-4.3 9.6-9.6 9.6H29.1c-5.3 0-9.6-4.3-9.6-9.6V80.7h37.9C77 77.8 81 60.5 101.6 55c3.5-.9 9.2-.9 16.2-.9h54.7Z"/></g></g><defs><clipPath id="a"><path fill="#fff" d="M0 0h192v192H0z"/></clipPath><clipPath id="b"><path fill="#fff" d="M19.5 19.5h153v153h-153z"/></clipPath></defs></svg>
